app/img/azamat/android.svg

<svg width="168" height="50" viewBox="0 0 168 50" fill="none" xmlns="http://www.w3.org/2000/svg">
<path d="M0 5C0 2.23858 2.23858 0 5 0H163C165.761 0 168 2.23858 168 5V45C168 47.7614 165.761 50 163 50H5C2.23858 50 0 47.7614 0 45V5Z" fill="white"/>
<path d="M84.7914 27.1886C81.8645 27.1886 79.4789 29.4248 79.4789 32.5048C79.4789 35.5661 81.8645 37.8211 84.7914 37.8211C87.7196 37.8211 90.1052 35.5661 90.1052 32.5048C90.104 29.4248 87.7184 27.1886 84.7914 27.1886ZM84.7914 35.7286C83.1874 35.7286 81.8048 34.3998 81.8048 32.5061C81.8048 30.5923 83.1886 29.2836 84.7914 29.2836C86.3955 29.2836 87.7781 30.5923 87.7781 32.5061C87.7781 34.3986 86.3955 35.7286 84.7914 35.7286ZM73.2007 27.1886C70.2738 27.1886 67.8882 29.4248 67.8882 32.5048C67.8882 35.5661 70.2738 37.8211 73.2007 37.8211C76.1289 37.8211 78.5145 35.5661 78.5145 32.5048C78.5145 29.4248 76.1289 27.1886 73.2007 27.1886ZM73.2007 35.7286C71.5966 35.7286 70.214 34.3998 70.214 32.5061C70.214 30.5923 71.5978 29.2836 73.2007 29.2836C74.8048 29.2836 76.1874 30.5923 76.1874 32.5061C76.1886 34.3986 74.8048 35.7286 73.2007 35.7286ZM59.4147 28.8211V31.0761H64.7882C64.6277 32.3448 64.2071 33.2711 63.565 33.9148C62.7834 34.6998 61.5602 35.5661 59.4147 35.5661C56.107 35.5661 53.521 32.8873 53.521 29.5648C53.521 26.2423 56.107 23.5636 59.4147 23.5636C61.1993 23.5636 62.5022 24.2686 63.4642 25.1748L65.0483 23.5836C63.7043 22.2948 61.921 21.3086 59.4147 21.3086C54.8837 21.3086 51.0745 25.0136 51.0745 29.5648C51.0745 34.1161 54.8837 37.8211 59.4147 37.8211C61.8601 37.8211 63.7056 37.0148 65.1479 35.5048C66.6313 34.0148 67.093 31.9198 67.093 30.2286C67.093 29.7061 67.0531 29.2223 66.9722 28.8198H59.4147V28.8211ZM115.798 30.5723C115.357 29.3848 114.013 27.1886 111.267 27.1886C108.54 27.1886 106.274 29.3436 106.274 32.5048C106.274 35.4848 108.521 37.8211 111.527 37.8211C113.953 37.8211 115.356 36.3311 115.939 35.4648L114.134 34.2561C113.533 35.1423 112.711 35.7261 111.527 35.7261C110.345 35.7261 109.502 35.1823 108.961 34.1148L116.038 31.1748L115.798 30.5723ZM108.58 32.3448C108.521 30.2898 110.164 29.2436 111.348 29.2436C112.27 29.2436 113.052 29.7073 113.313 30.3711L108.58 32.3448ZM102.827 37.4998H105.152V21.8736H102.827V37.4998ZM99.0167 28.3773H98.937C98.4156 27.7523 97.4126 27.1886 96.1507 27.1886C93.5038 27.1886 91.0784 29.5248 91.0784 32.5261C91.0784 35.5061 93.5038 37.8223 96.1507 37.8223C97.4138 37.8223 98.4156 37.2586 98.937 36.6148H99.0167V37.3798C99.0167 39.4136 97.934 40.5011 96.1906 40.5011C94.7669 40.5011 93.8846 39.4749 93.5237 38.6086L91.499 39.4548C92.0802 40.8636 93.6233 42.5961 96.1906 42.5961C98.9171 42.5961 101.223 40.9848 101.223 37.0573V27.5123H99.0179V28.3773H99.0167ZM96.3511 35.7286C94.747 35.7286 93.4042 34.3786 93.4042 32.5261C93.4042 30.6523 94.747 29.2836 96.3511 29.2836C97.934 29.2836 99.1772 30.6523 99.1772 32.5261C99.1772 34.3786 97.934 35.7286 96.3511 35.7286ZM126.692 21.8736H121.128V37.4998H123.449V31.5798H126.691C129.264 31.5798 131.795 29.7086 131.795 26.7273C131.795 23.7461 129.265 21.8736 126.692 21.8736ZM126.752 29.4048H123.449V24.0486H126.752C128.488 24.0486 129.473 25.4923 129.473 26.7273C129.473 27.9373 128.488 29.4048 126.752 29.4048ZM141.103 27.1611C139.421 27.1611 137.68 27.9048 136.96 29.5536L139.021 30.4173C139.461 29.5536 140.282 29.2711 141.142 29.2711C142.343 29.2711 143.564 29.9948 143.584 31.2811V31.4423C143.163 31.2011 142.262 30.8398 141.162 30.8398C138.941 30.8398 136.679 32.0661 136.679 34.3573C136.679 36.4486 138.5 37.7948 140.541 37.7948C142.102 37.7948 142.963 37.0911 143.503 36.2661H143.583V37.4723H145.825V31.4811C145.826 28.7086 143.763 27.1611 141.103 27.1611ZM140.821 35.7249C140.062 35.7249 139.001 35.3423 139.001 34.3973C139.001 33.1911 140.322 32.7286 141.463 32.7286C142.483 32.7286 142.964 32.9498 143.584 33.2511C143.404 34.6998 142.163 35.7249 140.821 35.7249ZM153.991 27.5023L151.329 34.2773H151.25L148.487 27.5023H145.986L150.129 36.9711L147.767 42.2386H150.188L156.573 27.5023H153.991ZM133.077 37.4998H135.398V21.8736H133.077V37.4998Z" fill="black"/>
<path d="M59.0091 12.8035C59.0091 13.851 58.7005 14.6847 58.082 15.3072C57.3801 16.0472 56.4642 16.4172 55.3393 16.4172C54.2616 16.4172 53.3444 16.0422 52.5915 15.2922C51.8374 14.541 51.4603 13.611 51.4603 12.501C51.4603 11.3897 51.8374 10.4597 52.5915 9.70975C53.3444 8.9585 54.2616 8.5835 55.3393 8.5835C55.8744 8.5835 56.3858 8.6885 56.8712 8.89725C57.3577 9.10725 57.7473 9.386 58.0385 9.73475L57.3826 10.3947C56.8886 9.801 56.2079 9.50475 55.338 9.50475C54.5515 9.50475 53.8721 9.78225 53.2984 10.3372C52.7247 10.8922 52.4385 11.6135 52.4385 12.4997C52.4385 13.386 52.7247 14.1072 53.2984 14.6622C53.8721 15.2172 54.5515 15.4947 55.338 15.4947C56.1718 15.4947 56.8674 15.216 57.4237 14.6572C57.7846 14.2935 57.9937 13.7872 58.0497 13.1385H55.338V12.2372H58.9556C58.9929 12.4335 59.0091 12.6222 59.0091 12.8035Z" fill="black"/>
<path d="M64.7461 9.67107H61.3463V12.0486H64.4126V12.9498H61.3463V15.3273H64.7461V16.2498H60.3868V8.74982H64.7461V9.67107Z" fill="black"/>
<path d="M68.7917 16.2498H67.8322V9.67107H65.7465V8.74982H70.8774V9.67107H68.7917V16.2498Z" fill="black"/>
<path d="M74.5895 16.2498V8.74982H75.549V16.2498H74.5895Z" fill="black"/>
<path d="M79.8039 16.2498H78.8445V9.67107H76.7588V8.74982H81.8896V9.67107H79.8039V16.2498Z" fill="black"/>
<path d="M91.6022 15.2811C90.868 16.0386 89.9558 16.4173 88.8644 16.4173C87.7731 16.4173 86.8609 16.0386 86.1279 15.2811C85.3937 14.5236 85.0278 13.5961 85.0278 12.4998C85.0278 11.4036 85.3937 10.4761 86.1279 9.71855C86.8609 8.96105 87.7731 8.58105 88.8644 8.58105C89.9496 8.58105 90.8605 8.9623 91.5972 9.72355C92.334 10.4848 92.7023 11.4098 92.7023 12.4998C92.7023 13.5961 92.3352 14.5236 91.6022 15.2811ZM86.836 14.6523C87.3885 15.2148 88.0643 15.4948 88.8644 15.4948C89.6646 15.4948 90.3416 15.2136 90.8929 14.6523C91.4454 14.0898 91.7229 13.3723 91.7229 12.4998C91.7229 11.6273 91.4454 10.9098 90.8929 10.3473C90.3416 9.7848 89.6646 9.5048 88.8644 9.5048C88.0643 9.5048 87.3885 9.78605 86.836 10.3473C86.2847 10.9098 86.0072 11.6273 86.0072 12.4998C86.0072 13.3723 86.2847 14.0898 86.836 14.6523Z" fill="black"/>
<path d="M94.0488 16.2498V8.74982H95.2161L98.8449 14.5836H98.886L98.8449 13.1386V8.74982H99.8044V16.2498H98.8026L95.0058 10.1323H94.9647L95.0058 11.5773V16.2498H94.0488Z" fill="black"/>
<path d="M59.0091 12.8035C59.0091 13.851 58.7005 14.6847 58.082 15.3072C57.3801 16.0472 56.4642 16.4172 55.3393 16.4172C54.2616 16.4172 53.3444 16.0422 52.5915 15.2922C51.8374 14.541 51.4603 13.611 51.4603 12.501C51.4603 11.3897 51.8374 10.4597 52.5915 9.70975C53.3444 8.9585 54.2616 8.5835 55.3393 8.5835C55.8744 8.5835 56.3858 8.6885 56.8712 8.89725C57.3577 9.10725 57.7473 9.386 58.0385 9.73475L57.3826 10.3947C56.8886 9.801 56.2079 9.50475 55.338 9.50475C54.5515 9.50475 53.8721 9.78225 53.2984 10.3372C52.7247 10.8922 52.4385 11.6135 52.4385 12.4997C52.4385 13.386 52.7247 14.1072 53.2984 14.6622C53.8721 15.2172 54.5515 15.4947 55.338 15.4947C56.1718 15.4947 56.8674 15.216 57.4237 14.6572C57.7846 14.2935 57.9937 13.7872 58.0497 13.1385H55.338V12.2372H58.9556C58.9929 12.4335 59.0091 12.6222 59.0091 12.8035Z" stroke="black" stroke-width="0.2" stroke-miterlimit="10"/>
<path d="M64.7461 9.67107H61.3463V12.0486H64.4126V12.9498H61.3463V15.3273H64.7461V16.2498H60.3868V8.74982H64.7461V9.67107Z" stroke="black" stroke-width="0.2" stroke-miterlimit="10"/>
<path d="M68.7917 16.2498H67.8322V9.67107H65.7465V8.74982H70.8774V9.67107H68.7917V16.2498Z" stroke="black" stroke-width="0.2" stroke-miterlimit="10"/>
<path d="M74.5895 16.2498V8.74982H75.549V16.2498H74.5895Z" stroke="black" stroke-width="0.2" stroke-miterlimit="10"/>
<path d="M79.8039 16.2498H78.8445V9.67107H76.7588V8.74982H81.8896V9.67107H79.8039V16.2498Z" stroke="black" stroke-width="0.2" stroke-miterlimit="10"/>
<path d="M91.6022 15.2811C90.868 16.0386 89.9558 16.4173 88.8644 16.4173C87.7731 16.4173 86.8609 16.0386 86.1279 15.2811C85.3937 14.5236 85.0278 13.5961 85.0278 12.4998C85.0278 11.4036 85.3937 10.4761 86.1279 9.71855C86.8609 8.96105 87.7731 8.58105 88.8644 8.58105C89.9496 8.58105 90.8605 8.9623 91.5972 9.72355C92.334 10.4848 92.7023 11.4098 92.7023 12.4998C92.7023 13.5961 92.3352 14.5236 91.6022 15.2811ZM86.836 14.6523C87.3885 15.2148 88.0643 15.4948 88.8644 15.4948C89.6646 15.4948 90.3416 15.2136 90.8929 14.6523C91.4454 14.0898 91.7229 13.3723 91.7229 12.4998C91.7229 11.6273 91.4454 10.9098 90.8929 10.3473C90.3416 9.7848 89.6646 9.5048 88.8644 9.5048C88.0643 9.5048 87.3885 9.78605 86.836 10.3473C86.2847 10.9098 86.0072 11.6273 86.0072 12.4998C86.0072 13.3723 86.2847 14.0898 86.836 14.6523Z" stroke="black" stroke-width="0.2" stroke-miterlimit="10"/>
<path d="M94.0488 16.2498V8.74982H95.2161L98.8449 14.5836H98.886L98.8449 13.1386V8.74982H99.8044V16.2498H98.8026L95.0058 10.1323H94.9647L95.0058 11.5773V16.2498H94.0488Z" stroke="black" stroke-width="0.2" stroke-miterlimit="10"/>
<g filter="url(#filter0_ii_141:145)">
<path d="M12.9871 9.4223C12.6249 9.8073 12.4109 10.4048 12.4109 11.1786V38.8236C12.4109 39.5986 12.6249 40.1948 12.9871 40.5798L13.0792 40.6698L28.4966 25.1836V25.0011V24.8186L13.0792 9.33105L12.9871 9.4223Z" fill="url(#paint0_linear_141:145)"/>
<path d="M33.6349 30.3475L28.4966 25.1837V25.0012V24.8187L33.6361 19.6563L33.7519 19.7225L39.8409 23.1975C41.5794 24.19 41.5794 25.8137 39.8409 26.8075L33.7519 30.2825L33.6349 30.3475Z" fill="url(#paint1_linear_141:145)"/>
<g filter="url(#filter1_i_141:145)">
<path d="M33.7519 30.281L28.4953 25.001L12.9871 40.5797C13.5595 41.1897 14.5065 41.2647 15.573 40.6572L33.7519 30.281Z" fill="url(#paint2_linear_141:145)"/>
</g>
<path d="M33.7519 19.7209L15.573 9.34588C14.5065 8.73713 13.5595 8.81338 12.9871 9.42338L28.4966 25.0021L33.7519 19.7209Z" fill="url(#paint3_linear_141:145)"/>
</g>
<path d="M5 1H163V-1H5V1ZM167 5V45H169V5H167ZM163 49H5V51H163V49ZM1 45V5H-1V45H1ZM5 49C2.79086 49 1 47.2091 1 45H-1C-1 48.3137 1.68629 51 5 51V49ZM167 45C167 47.2091 165.209 49 163 49V51C166.314 51 169 48.3137 169 45H167ZM163 1C165.209 1 167 2.79086 167 5H169C169 1.68629 166.314 -1 163 -1V1ZM5 -1C1.68629 -1 -1 1.68629 -1 5H1C1 2.79086 2.79086 1 5 1V-1Z" fill="#A6A6A6"/>
<defs>
<filter id="filter0_ii_141:145" x="12.4109" y="8.92578" width="28.7339" height="32.1514" filterUnits="userSpaceOnUse" color-interpolation-filters="sRGB">
<feFlood flood-opacity="0" result="BackgroundImageFix"/>
<feBlend mode="normal" in="SourceGraphic" in2="BackgroundImageFix" result="shape"/>
<feColorMatrix in="SourceAlpha" type="matrix" values="0 0 0 0 0 0 0 0 0 0 0 0 0 0 0 0 0 0 127 0" result="hardAlpha"/>
<feOffset dy="-0.15"/>
<feComposite in2="hardAlpha" operator="arithmetic" k2="-1" k3="1"/>
<feColorMatrix type="matrix" values="0 0 0 0 0 0 0 0 0 0 0 0 0 0 0 0 0 0 0.12 0"/>
<feBlend mode="normal" in2="shape" result="effect1_innerShadow_141:145"/>
<feColorMatrix in="SourceAlpha" type="matrix" values="0 0 0 0 0 0 0 0 0 0 0 0 0 0 0 0 0 0 127 0" result="hardAlpha"/>
<feOffset dy="0.15"/>
<feComposite in2="hardAlpha" operator="arithmetic" k2="-1" k3="1"/>
<feColorMatrix type="matrix" values="0 0 0 0 1 0 0 0 0 1 0 0 0 0 1 0 0 0 0.25 0"/>
<feBlend mode="normal" in2="effect1_innerShadow_141:145" result="effect2_innerShadow_141:145"/>
</filter>
<filter id="filter1_i_141:145" x="12.9871" y="25.001" width="20.7648" height="16.0762" filterUnits="userSpaceOnUse" color-interpolation-filters="sRGB">
<feFlood flood-opacity="0" result="BackgroundImageFix"/>
<feBlend mode="normal" in="SourceGraphic" in2="BackgroundImageFix" result="shape"/>
<feColorMatrix in="SourceAlpha" type="matrix" values="0 0 0 0 0 0 0 0 0 0 0 0 0 0 0 0 0 0 127 0" result="hardAlpha"/>
<feOffset dy="-0.15"/>
<feComposite in2="hardAlpha" operator="arithmetic" k2="-1" k3="1"/>
<feColorMatrix type="matrix" values="0 0 0 0 0 0 0 0 0 0 0 0 0 0 0 0 0 0 0.08 0"/>
<feBlend mode="normal" in2="shape" result="effect1_innerShadow_141:145"/>
</filter>
<linearGradient id="paint0_linear_141:145" x1="27.1299" y1="10.8861" x2="6.15264" y2="31.7701" gradientUnits="userSpaceOnUse">
<stop stop-color="#00A0FF"/>
<stop offset="0.0066" stop-color="#00A1FF"/>
<stop offset="0.2601" stop-color="#00BEFF"/>
<stop offset="0.5122" stop-color="#00D2FF"/>
<stop offset="0.7604" stop-color="#00DFFF"/>
<stop offset="1" stop-color="#00E3FF"/>
</linearGradient>
<linearGradient id="paint1_linear_141:145" x1="42.104" y1="25.0013" x2="11.9935" y2="25.0013" gradientUnits="userSpaceOnUse">
<stop stop-color="#FFE000"/>
<stop offset="0.4087" stop-color="#FFBD00"/>
<stop offset="0.7754" stop-color="#FFA500"/>
<stop offset="1" stop-color="#FF9C00"/>
</linearGradient>
<linearGradient id="paint2_linear_141:145" x1="30.8972" y1="27.8684" x2="2.44939" y2="56.1898" gradientUnits="userSpaceOnUse">
<stop stop-color="#FF3A44"/>
<stop offset="1" stop-color="#C31162"/>
</linearGradient>
<linearGradient id="paint3_linear_141:145" x1="9.08125" y1="0.220626" x2="21.784" y2="12.8669" gradientUnits="userSpaceOnUse">
<stop stop-color="#32A071"/>
<stop offset="0.0685" stop-color="#2DA771"/>
<stop offset="0.4762" stop-color="#15CF74"/>
<stop offset="0.8009" stop-color="#06E775"/>
<stop offset="1" stop-color="#00F076"/>
</linearGradient>
</defs>
</svg>

<svg width="168" height="50" fill="none" xmlns="http://www.w3.org/2000/svg"><path d="M0 5a5 5 0 0 1 5-5h158a5 5 0 0 1 5 5v40a5 5 0 0 1-5 5H5a5 5 0 0 1-5-5V5Z" fill="#fff"/><path d="M84.791 27.189c-2.926 0-5.312 2.236-5.312 5.316 0 3.061 2.386 5.316 5.312 5.316 2.929 0 5.314-2.255 5.314-5.316-.001-3.08-2.387-5.316-5.314-5.316Zm0 8.54c-1.604 0-2.986-1.33-2.986-3.223 0-1.914 1.384-3.222 2.986-3.222 1.605 0 2.987 1.308 2.987 3.222 0 1.893-1.383 3.223-2.987 3.223Zm-11.59-8.54c-2.927 0-5.313 2.236-5.313 5.316 0 3.061 2.386 5.316 5.313 5.316 2.928 0 5.314-2.255 5.314-5.316 0-3.08-2.386-5.316-5.314-5.316Zm0 8.54c-1.604 0-2.987-1.33-2.987-3.223 0-1.914 1.384-3.222 2.987-3.222 1.604 0 2.986 1.308 2.986 3.222.002 1.893-1.382 3.223-2.986 3.223ZM59.415 28.82v2.255h5.373c-.16 1.269-.58 2.195-1.223 2.839-.782.785-2.005 1.651-4.15 1.651-3.308 0-5.894-2.679-5.894-6.001 0-3.323 2.586-6.001 5.894-6.001 1.784 0 3.087.705 4.05 1.61l1.583-1.59c-1.344-1.29-3.127-2.275-5.633-2.275-4.531 0-8.34 3.705-8.34 8.256s3.809 8.256 8.34 8.256c2.445 0 4.29-.806 5.733-2.316 1.483-1.49 1.945-3.585 1.945-5.276 0-.523-.04-1.007-.12-1.41h-7.558v.002Zm56.383 1.751c-.441-1.187-1.785-3.383-4.531-3.383-2.727 0-4.993 2.155-4.993 5.316 0 2.98 2.247 5.316 5.253 5.316 2.426 0 3.829-1.49 4.412-2.356l-1.805-1.209c-.601.886-1.423 1.47-2.607 1.47-1.182 0-2.025-.544-2.566-1.611l7.077-2.94-.24-.603Zm-7.218 1.773c-.059-2.055 1.584-3.101 2.768-3.101.922 0 1.704.463 1.965 1.127l-4.733 1.974Zm-5.753 5.155h2.325V21.874h-2.325V37.5Zm-3.81-9.123h-.08c-.521-.625-1.524-1.188-2.786-1.188-2.647 0-5.073 2.336-5.073 5.337 0 2.98 2.426 5.296 5.073 5.296 1.263 0 2.265-.563 2.786-1.207h.08v.765c0 2.034-1.083 3.121-2.826 3.121-1.424 0-2.306-1.026-2.667-1.892l-2.025.846c.581 1.409 2.124 3.141 4.692 3.141 2.726 0 5.032-1.611 5.032-5.539v-9.545h-2.205v.865h-.001ZM96.35 35.73c-1.604 0-2.947-1.35-2.947-3.203 0-1.874 1.343-3.242 2.947-3.242 1.583 0 2.826 1.368 2.826 3.242 0 1.853-1.243 3.203-2.826 3.203Zm30.341-13.855h-5.564V37.5h2.321v-5.92h3.242c2.573 0 5.104-1.871 5.104-4.853 0-2.98-2.53-4.853-5.103-4.853Zm.06 7.53h-3.303V24.05h3.303c1.736 0 2.721 1.443 2.721 2.678 0 1.21-.985 2.678-2.721 2.678Zm14.351-2.243c-1.682 0-3.423.744-4.143 2.393l2.061.863c.44-.863 1.261-1.146 2.121-1.146 1.201 0 2.422.724 2.442 2.01v.161c-.421-.24-1.322-.602-2.422-.602-2.221 0-4.483 1.226-4.483 3.517 0 2.092 1.821 3.438 3.862 3.438 1.561 0 2.422-.704 2.962-1.529h.08v1.206h2.242v-5.99c.001-2.773-2.062-4.32-4.722-4.32Zm-.282 8.564c-.759 0-1.82-.383-1.82-1.328 0-1.206 1.321-1.668 2.462-1.668 1.02 0 1.501.22 2.121.522-.18 1.449-1.421 2.474-2.763 2.474Zm13.17-8.223-2.662 6.775h-.079l-2.763-6.775h-2.501l4.143 9.47-2.362 5.267h2.421l6.385-14.737h-2.582ZM133.077 37.5h2.321V21.874h-2.321V37.5ZM59.01 12.803c0 1.048-.31 1.882-.928 2.504-.702.74-1.618 1.11-2.743 1.11-1.077 0-1.995-.375-2.747-1.125-.755-.751-1.132-1.681-1.132-2.791 0-1.111.377-2.041 1.132-2.791.752-.752 1.67-1.127 2.747-1.127a3.84 3.84 0 0 1 1.532.314c.487.21.876.489 1.167.838l-.655.66c-.494-.594-1.175-.89-2.045-.89-.787 0-1.466.277-2.04.832-.573.555-.86 1.277-.86 2.163 0 .886.287 1.607.86 2.162a2.834 2.834 0 0 0 2.04.833c.834 0 1.53-.279 2.086-.838.36-.364.57-.87.626-1.518h-2.712v-.902h3.618c.037.197.053.385.053.566ZM64.746 9.671h-3.4v2.378h3.067v.9h-3.067v2.378h3.4v.923h-4.36v-7.5h4.36v.921ZM68.792 16.25h-.96V9.67h-2.085V8.75h5.13v.921h-2.085v6.579ZM74.59 16.25v-7.5h.959v7.5h-.96ZM79.804 16.25h-.96V9.67H76.76V8.75h5.13v.921h-2.085v6.579ZM91.602 15.281c-.734.758-1.646 1.136-2.738 1.136-1.09 0-2.003-.378-2.736-1.136-.734-.757-1.1-1.685-1.1-2.781s.366-2.024 1.1-2.781c.733-.758 1.645-1.138 2.736-1.138 1.086 0 1.996.381 2.733 1.143.737.76 1.105 1.686 1.105 2.776 0 1.096-.367 2.024-1.1 2.781Zm-4.766-.629c.552.563 1.228.843 2.028.843s1.478-.281 2.029-.843c.552-.562.83-1.28.83-2.152 0-.873-.278-1.59-.83-2.153-.551-.562-1.228-.842-2.029-.842-.8 0-1.476.281-2.028.842-.551.563-.829 1.28-.829 2.153 0 .872.278 1.59.829 2.152ZM94.049 16.25v-7.5h1.167l3.629 5.834h.041l-.041-1.445v-4.39h.96v7.5h-1.002l-3.797-6.117h-.041l.04 1.445v4.673h-.956Z" fill="#000"/><path d="M59.01 12.803c0 1.048-.31 1.882-.928 2.504-.702.74-1.618 1.11-2.743 1.11-1.077 0-1.995-.375-2.747-1.125-.755-.751-1.132-1.681-1.132-2.791 0-1.111.377-2.041 1.132-2.791.752-.752 1.67-1.127 2.747-1.127a3.84 3.84 0 0 1 1.532.314c.487.21.876.489 1.167.838l-.655.66c-.494-.594-1.175-.89-2.045-.89-.787 0-1.466.277-2.04.832-.573.555-.86 1.277-.86 2.163 0 .886.287 1.607.86 2.162a2.834 2.834 0 0 0 2.04.833c.834 0 1.53-.279 2.086-.838.36-.364.57-.87.626-1.518h-2.712v-.902h3.618c.037.197.053.385.053.566ZM64.746 9.671h-3.4v2.378h3.067v.9h-3.067v2.378h3.4v.923h-4.36v-7.5h4.36v.921ZM68.792 16.25h-.96V9.67h-2.085V8.75h5.13v.921h-2.085v6.579ZM74.59 16.25v-7.5h.959v7.5h-.96ZM79.804 16.25h-.96V9.67H76.76V8.75h5.13v.921h-2.085v6.579ZM91.602 15.281c-.734.758-1.646 1.136-2.738 1.136-1.09 0-2.003-.378-2.736-1.136-.734-.757-1.1-1.685-1.1-2.781s.366-2.024 1.1-2.781c.733-.758 1.645-1.138 2.736-1.138 1.086 0 1.996.381 2.733 1.143.737.76 1.105 1.686 1.105 2.776 0 1.096-.367 2.024-1.1 2.781Zm-4.766-.629c.552.563 1.228.843 2.028.843s1.478-.281 2.029-.843c.552-.562.83-1.28.83-2.152 0-.873-.278-1.59-.83-2.153-.551-.562-1.228-.842-2.029-.842-.8 0-1.476.281-2.028.842-.551.563-.829 1.28-.829 2.153 0 .872.278 1.59.829 2.152ZM94.049 16.25v-7.5h1.167l3.629 5.834h.041l-.041-1.445v-4.39h.96v7.5h-1.002l-3.797-6.117h-.041l.04 1.445v4.673h-.956Z" stroke="#000" stroke-width=".2" stroke-miterlimit="10"/><g filter="url(#a)"><path d="M12.987 9.422c-.362.385-.576.983-.576 1.757v27.645c0 .775.214 1.37.576 1.756l.092.09 15.418-15.486v-.365L13.079 9.33l-.092.091Z" fill="url(#b)"/><path d="m33.635 30.348-5.138-5.164v-.365l5.14-5.163.115.067 6.089 3.475c1.738.992 1.738 2.616 0 3.61l-6.09 3.474-.116.066Z" fill="url(#c)"/><g filter="url(#d)"><path d="m33.752 30.281-5.257-5.28L12.987 40.58c.572.61 1.52.685 2.586.077l18.179-10.376Z" fill="url(#e)"/></g><path d="M33.752 19.72 15.573 9.347c-1.066-.609-2.014-.533-2.586.077l15.51 15.58 5.255-5.282Z" fill="url(#f)"/></g><path d="M5 1h158v-2H5v2Zm162 4v40h2V5h-2Zm-4 44H5v2h158v-2ZM1 45V5h-2v40h2Zm4 4a4 4 0 0 1-4-4h-2a6 6 0 0 0 6 6v-2Zm162-4a4 4 0 0 1-4 4v2a6 6 0 0 0 6-6h-2Zm-4-44a4 4 0 0 1 4 4h2a6 6 0 0 0-6-6v2ZM5-1a6 6 0 0 0-6 6h2a4 4 0 0 1 4-4v-2Z" fill="#A6A6A6"/><defs><linearGradient id="b" x1="27.13" y1="10.886" x2="6.153" y2="31.77" gradientUnits="userSpaceOnUse"><stop stop-color="#00A0FF"/><stop offset=".007" stop-color="#00A1FF"/><stop offset=".26" stop-color="#00BEFF"/><stop offset=".512" stop-color="#00D2FF"/><stop offset=".76" stop-color="#00DFFF"/><stop offset="1" stop-color="#00E3FF"/></linearGradient><linearGradient id="c" x1="42.104" y1="25.001" x2="11.993" y2="25.001" gradientUnits="userSpaceOnUse"><stop stop-color="#FFE000"/><stop offset=".409" stop-color="#FFBD00"/><stop offset=".775" stop-color="orange"/><stop offset="1" stop-color="#FF9C00"/></linearGradient><linearGradient id="e" x1="30.897" y1="27.868" x2="2.449" y2="56.19" gradientUnits="userSpaceOnUse"><stop stop-color="#FF3A44"/><stop offset="1" stop-color="#C31162"/></linearGradient><linearGradient id="f" x1="9.081" y1=".221" x2="21.784" y2="12.867" gradientUnits="userSpaceOnUse"><stop stop-color="#32A071"/><stop offset=".069" stop-color="#2DA771"/><stop offset=".476" stop-color="#15CF74"/><stop offset=".801" stop-color="#06E775"/><stop offset="1" stop-color="#00F076"/></linearGradient><filter id="a" x="12.411" y="8.926" width="28.734" height="32.151" filterUnits="userSpaceOnUse" color-interpolation-filters="sRGB"><feFlood flood-opacity="0" result="BackgroundImageFix"/><feBlend in="SourceGraphic" in2="BackgroundImageFix" result="shape"/><feColorMatrix in="SourceAlpha" values="0 0 0 0 0 0 0 0 0 0 0 0 0 0 0 0 0 0 127 0" result="hardAlpha"/><feOffset dy="-.15"/><feComposite in2="hardAlpha" operator="arithmetic" k2="-1" k3="1"/><feColorMatrix values="0 0 0 0 0 0 0 0 0 0 0 0 0 0 0 0 0 0 0.12 0"/><feBlend in2="shape" result="effect1_innerShadow_141:145"/><feColorMatrix in="SourceAlpha" values="0 0 0 0 0 0 0 0 0 0 0 0 0 0 0 0 0 0 127 0" result="hardAlpha"/><feOffset dy=".15"/><feComposite in2="hardAlpha" operator="arithmetic" k2="-1" k3="1"/><feColorMatrix values="0 0 0 0 1 0 0 0 0 1 0 0 0 0 1 0 0 0 0.25 0"/><feBlend in2="effect1_innerShadow_141:145" result="effect2_innerShadow_141:145"/></filter><filter id="d" x="12.987" y="25.001" width="20.765" height="16.076" filterUnits="userSpaceOnUse" color-interpolation-filters="sRGB"><feFlood flood-opacity="0" result="BackgroundImageFix"/><feBlend in="SourceGraphic" in2="BackgroundImageFix" result="shape"/><feColorMatrix in="SourceAlpha" values="0 0 0 0 0 0 0 0 0 0 0 0 0 0 0 0 0 0 127 0" result="hardAlpha"/><feOffset dy="-.15"/><feComposite in2="hardAlpha" operator="arithmetic" k2="-1" k3="1"/><feColorMatrix values="0 0 0 0 0 0 0 0 0 0 0 0 0 0 0 0 0 0 0.08 0"/><feBlend in2="shape" result="effect1_innerShadow_141:145"/></filter></defs></svg>
